static/assets/uswds/img/material-icons/corporate_fare.svg

<svg xmlns="http://www.w3.org/2000/svg" width="24" height="24" viewBox="0 0 24 24"><path d="M12 7V3H2v18h20V7H12zm-2 12H4v-2h6v2zm0-4H4v-2h6v2zm0-4H4V9h6v2zm0-4H4V5h6v2zm10 12h-8V9h8v10zm-2-8h-4v2h4v-2zm0 4h-4v2h4v-2z"/></svg>

<svg xmlns="http://www.w3.org/2000/svg" enable-background="new 0 0 24 24" height="24" viewBox="0 0 24 24" width="24"><rect fill="none" height="24" width="24"/><path d="M12,7V3H2v18h20V7H12z M10,19H4v-2h6V19z M10,15H4v-2h6V15z M10,11H4V9h6V11z M10,7H4V5h6V7z M20,19h-8V9h8V19z M18,11h-4v2 h4V11z M18,15h-4v2h4V15z"/></svg>
